icons/numix/32x32/mimetypes/application-vnd.oasis.opendocument.presentation.svg

<?xml version="1.0" encoding="UTF-8" standalone="no"?>
<svg
   xmlns:dc="http://purl.org/dc/elements/1.1/"
   xmlns:cc="http://creativecommons.org/ns#"
   xmlns:rdf="http://www.w3.org/1999/02/22-rdf-syntax-ns#"
   xmlns:svg="http://www.w3.org/2000/svg"
   xmlns="http://www.w3.org/2000/svg"
   xmlns:sodipodi="http://sodipodi.sourceforge.net/DTD/sodipodi-0.dtd"
   xmlns:inkscape="http://www.inkscape.org/namespaces/inkscape"
   width="32"
   height="32"
   viewBox="0 0 32 32"
   id="svg2"
   version="1.1"
   inkscape:version="0.48.5 r10040"
   sodipodi:docname="application-vnd.oasis.opendocument.presentation.svg">
  <metadata
     id="metadata34">
    <rdf:RDF>
      <cc:Work
         rdf:about="">
        <dc:format>image/svg+xml</dc:format>
        <dc:type
           rdf:resource="http://purl.org/dc/dcmitype/StillImage" />
      </cc:Work>
    </rdf:RDF>
  </metadata>
  <defs
     id="defs32" />
  <sodipodi:namedview
     pagecolor="#ffffff"
     bordercolor="#666666"
     borderopacity="1"
     objecttolerance="10"
     gridtolerance="10"
     guidetolerance="10"
     inkscape:pageopacity="0"
     inkscape:pageshadow="2"
     inkscape:window-width="1280"
     inkscape:window-height="970"
     id="namedview30"
     showgrid="true"
     inkscape:zoom="7.375"
     inkscape:cx="12.427552"
     inkscape:cy="18.734908"
     inkscape:window-x="0"
     inkscape:window-y="0"
     inkscape:window-maximized="1"
     inkscape:current-layer="svg2">
    <inkscape:grid
       type="xygrid"
       id="grid3081" />
  </sodipodi:namedview>
  <path
     style="fill:#d14626;fill-opacity:1"
     d="M 5.335888,2.974e-4 C 4.648414,3.124e-4 4,0.6767884 4,1.3940324 L 4,30.606268 C 4,31.282757 4.687474,32 5.335888,32 l 21.327332,0 c 0.648414,0 1.335888,-0.717243 1.335888,-1.393732 L 28,9.0000004 l -9,-9 z"
     id="path4-1"
     inkscape:connector-curvature="0"
     sodipodi:nodetypes="ssssssccs" />
  <path
     style="fill:#000000;fill-opacity:0.19599998"
     d="M 21,9.0000004 28,16 28,9.0000004 z"
     id="path6-4"
     inkscape:connector-curvature="0"
     sodipodi:nodetypes="cccc" />
  <path
     style="fill:#ffffff;fill-opacity:0.39200003"
     d="m 19.000306,2.974e-4 8.991594,8.999703 -7.613262,0 c -0.672951,0 -1.378332,-0.7134896 -1.378332,-1.3864402 z"
     id="path8-6"
     inkscape:connector-curvature="0"
     sodipodi:nodetypes="ccssc" />
  <path
     style="fill:#000000;fill-opacity:0.19599998"
     d="m 4,24 0,6.667969 C 4,31.316407 4.6875,32 5.332031,32 l 21.335938,0 C 27.3125,32 28,31.316407 28,30.667969 L 28,24 z"
     id="path20"
     inkscape:connector-curvature="0" />
  <path
     style="fill:#ffffff"
     inkscape:connector-curvature="0"
     id="path3009"
     d="m 8,12 5,0 0,3 -5,0 z" />
  <g
     style="fill:#ffffff"
     id="g22"
     transform="matrix(1.0547745,0,0,1.0547745,-0.9095951,-0.64323424)">
    <path
       d="m 10.488281,27.332031 c 0,0.25 0.0078,0.484375 0.02734,0.703125 0.02344,0.214844 0.06641,0.402344 0.128906,0.5625 0.06641,0.160156 0.160157,0.285156 0.277344,0.378906 0.117187,0.09375 0.273437,0.140626 0.46875,0.140626 0.191406,0 0.34375,-0.04688 0.460937,-0.140626 0.125,-0.09375 0.214844,-0.21875 0.277344,-0.378906 0.06641,-0.167968 0.109375,-0.355468 0.128906,-0.570312 0.02344,-0.214844 0.03906,-0.445313 0.03906,-0.695313 0,-0.246093 -0.01563,-0.476562 -0.03906,-0.691406 -0.01953,-0.222656 -0.0625,-0.410156 -0.128906,-0.570313 -0.0625,-0.160156 -0.152344,-0.285156 -0.265625,-0.378906 -0.117187,-0.09375 -0.277343,-0.140625 -0.472656,-0.140625 -0.195313,0 -0.351563,0.04687 -0.46875,0.140625 -0.117187,0.09375 -0.210937,0.222656 -0.277344,0.386719 -0.0625,0.160156 -0.105469,0.347656 -0.128906,0.5625 -0.01953,0.214844 -0.02734,0.445313 -0.02734,0.691406 m -1.15625,0 c 0,-0.878906 0.183594,-1.542969 0.546875,-1.988281 0.363282,-0.453125 0.867188,-0.675781 1.511719,-0.675781 0.671875,0 1.179687,0.222656 1.53125,0.675781 0.351563,0.445312 0.527344,1.109375 0.527344,1.988281 0,0.882813 -0.179688,1.546875 -0.535157,2 C 12.558594,29.777344 12.050781,30 11.398438,30 c -0.667969,0 -1.183594,-0.222656 -1.539063,-0.667969 -0.351563,-0.453125 -0.527344,-1.117187 -0.527344,-2"
       id="path24"
       inkscape:connector-curvature="0" />
    <path
       d="m 15.332031,29.066406 c 0.03125,0.0078 0.0625,0.0078 0.101563,0.0078 0.03516,0 0.07031,0 0.101562,0 0.257813,0 0.472656,-0.04297 0.644532,-0.128907 0.179687,-0.08984 0.320312,-0.210937 0.425781,-0.363281 0.109375,-0.15625 0.1875,-0.335937 0.230469,-0.546875 0.04687,-0.214844 0.07422,-0.449218 0.07422,-0.703125 0,-0.21875 -0.01953,-0.433593 -0.05469,-0.640625 -0.03906,-0.210937 -0.101563,-0.394531 -0.195313,-0.554687 -0.09375,-0.160157 -0.21875,-0.285157 -0.378906,-0.378907 -0.160156,-0.101562 -0.367188,-0.148437 -0.617188,-0.148437 -0.05078,0 -0.105468,0 -0.167968,0.0078 -0.05859,0 -0.117188,0.0039 -0.164063,0.01562 l 0,3.433594 m 2.73047,-1.734345 c 0,0.476563 -0.06641,0.878907 -0.203125,1.214844 -0.128906,0.332031 -0.3125,0.601563 -0.542969,0.808594 -0.234375,0.210937 -0.515625,0.363281 -0.839844,0.464843 -0.320312,0.08984 -0.675781,0.136719 -1.0625,0.136719 -0.203124,0 -0.402343,-0.0078 -0.601562,-0.03125 -0.1875,-0.01563 -0.394531,-0.04687 -0.617188,-0.08984 l 0,-4.988282 c 0.257813,-0.04687 0.503907,-0.08203 0.730469,-0.09766 0.226563,-0.01563 0.4375,-0.02734 0.636719,-0.02734 0.375,0 0.714844,0.05078 1.023438,0.152344 0.3125,0.09766 0.578124,0.253906 0.792968,0.46875 0.214844,0.210938 0.382813,0.480469 0.5,0.808594 C 18,26.476562 18.0625,26.871094 18.0625,27.332031"
       id="path26"
       inkscape:connector-curvature="0" />
    <path
       d="m 20.378906,24.722656 c 0.726563,0 1.289063,0.136719 1.6875,0.40625 0.398438,0.265625 0.601563,0.699219 0.601563,1.304688 0,0.609375 -0.203125,1.054687 -0.609375,1.328125 -0.402344,0.269531 -0.96875,0.40625 -1.707032,0.40625 l -0.40625,0 0,1.726562 -1.136718,0 0,-5.046875 c 0.113281,-0.01953 0.234375,-0.03906 0.371094,-0.05859 0.140624,-0.01562 0.28125,-0.02734 0.421874,-0.03125 0.144532,-0.01172 0.28125,-0.01953 0.417969,-0.02344 0.132813,-0.0078 0.253907,-0.01172 0.359375,-0.01172 m 0.128906,0.886719 c -0.06641,0 -0.164062,0 -0.285156,0.0078 -0.117187,0 -0.210937,0.0039 -0.277344,0.01562 l 0,1.652344 0.460938,0 c 0.363281,0 0.636719,-0.06641 0.820312,-0.191406 0.183594,-0.132812 0.277344,-0.355469 0.277344,-0.667969 0,-0.296875 -0.09375,-0.507812 -0.277344,-0.628906 -0.175781,-0.125 -0.417968,-0.1875 -0.71875,-0.1875"
       id="path28"
       inkscape:connector-curvature="0" />
  </g>
  <path
     style="fill:#ffffff"
     inkscape:connector-curvature="0"
     id="path3011"
     d="m 8,17 5,0 0,3 -5,0 z" />
  <path
     style="fill:#ffffff"
     inkscape:connector-curvature="0"
     id="path3015"
     d="M 20,10.992539 20,15 l 4,0 c 0,-2.214356 -1.791478,-4.007461 -4,-4.007461 z" />
  <path
     style="fill:#ffffff"
     inkscape:connector-curvature="0"
     id="path3017"
     d="M 19.001814,12 C 16.792291,12 15,13.789768 15,16 c 0,2.210233 1.792291,4 4.001814,4 C 21.211338,20 23,18.210233 23,16 l -3.998186,0 z" />
</svg>

<svg width="32" xmlns="http://www.w3.org/2000/svg" height="32" viewBox="0 0 32 32" xmlns:xlink="http://www.w3.org/1999/xlink">
<path style="fill:#d14626" d="M 5.332031 0.667969 C 4.648438 0.667969 4 1.3125 4 2 L 4 30 C 4 30.648438 4.6875 31.332031 5.332031 31.332031 L 26.667969 31.332031 C 27.3125 31.332031 28 30.648438 28 30 L 28 9.332031 L 19.332031 0.667969 Z "/>
<path style="fill:#000;fill-opacity:.196" d="M 19.332031 8 L 19.375 8.042969 L 19.480469 8 Z M 20.667969 9.332031 L 28 16.667969 L 28 9.332031 Z "/>
<path style="fill:#fff;fill-opacity:.392" d="M 19.332031 0.667969 L 28 9.332031 L 20.667969 9.332031 C 20.019531 9.332031 19.332031 8.648438 19.332031 8 Z "/>
<g style="fill:#fff">
<path d="M 8 10.667969 L 12.667969 10.667969 L 12.667969 14 L 8 14 Z "/>
<path d="M 8 16 L 12.667969 16 L 12.667969 19.332031 L 8 19.332031 Z "/>
<path d="M 19.691406 10.667969 L 19.691406 14.867188 L 24 14.867188 C 24 12.546875 22.070312 10.667969 19.691406 10.667969 Z "/>
<path d="M 19.078125 11.265625 C 16.699219 11.265625 14.769531 13.148438 14.769531 15.464844 C 14.769531 17.785156 16.699219 19.667969 19.078125 19.667969 C 21.457031 19.667969 23.382812 17.785156 23.382812 15.464844 L 19.078125 15.464844 Z "/>
</g>
<path style="fill:#000;fill-opacity:.196" d="M 4 23.332031 L 4 30 C 4 30.648438 4.6875 31.332031 5.332031 31.332031 L 26.667969 31.332031 C 27.3125 31.332031 28 30.648438 28 30 L 28 23.332031 Z "/>
<g style="fill:#fff">
<path d="M 10.488281 27.332031 C 10.488281 27.582031 10.496094 27.816406 10.515625 28.035156 C 10.539062 28.25 10.582031 28.4375 10.644531 28.597656 C 10.710938 28.757812 10.804688 28.882812 10.921875 28.976562 C 11.039062 29.070312 11.195312 29.117188 11.390625 29.117188 C 11.582031 29.117188 11.734375 29.070312 11.851562 28.976562 C 11.976562 28.882812 12.066406 28.757812 12.128906 28.597656 C 12.195312 28.429688 12.238281 28.242188 12.257812 28.027344 C 12.28125 27.8125 12.296875 27.582031 12.296875 27.332031 C 12.296875 27.085938 12.28125 26.855469 12.257812 26.640625 C 12.238281 26.417969 12.195312 26.230469 12.128906 26.070312 C 12.066406 25.910156 11.976562 25.785156 11.863281 25.691406 C 11.746094 25.597656 11.585938 25.550781 11.390625 25.550781 C 11.195312 25.550781 11.039062 25.597656 10.921875 25.691406 C 10.804688 25.785156 10.710938 25.914062 10.644531 26.078125 C 10.582031 26.238281 10.539062 26.425781 10.515625 26.640625 C 10.496094 26.855469 10.488281 27.085938 10.488281 27.332031 M 9.332031 27.332031 C 9.332031 26.453125 9.515625 25.789062 9.878906 25.34375 C 10.242188 24.890625 10.746094 24.667969 11.390625 24.667969 C 12.0625 24.667969 12.570312 24.890625 12.921875 25.34375 C 13.273438 25.789062 13.449219 26.453125 13.449219 27.332031 C 13.449219 28.214844 13.269531 28.878906 12.914062 29.332031 C 12.558594 29.777344 12.050781 30 11.398438 30 C 10.730469 30 10.214844 29.777344 9.859375 29.332031 C 9.507812 28.878906 9.332031 28.214844 9.332031 27.332031 "/>
<path d="M 15.332031 29.066406 C 15.363281 29.074219 15.394531 29.074219 15.433594 29.074219 C 15.46875 29.074219 15.503906 29.074219 15.535156 29.074219 C 15.792969 29.074219 16.007812 29.03125 16.179688 28.945312 C 16.359375 28.855469 16.5 28.734375 16.605469 28.582031 C 16.714844 28.425781 16.792969 28.246094 16.835938 28.035156 C 16.882812 27.820312 16.910156 27.585938 16.910156 27.332031 C 16.910156 27.113281 16.890625 26.898438 16.855469 26.691406 C 16.816406 26.480469 16.753906 26.296875 16.660156 26.136719 C 16.566406 25.976562 16.441406 25.851562 16.28125 25.757812 C 16.121094 25.65625 15.914062 25.609375 15.664062 25.609375 C 15.613281 25.609375 15.558594 25.609375 15.496094 25.617188 C 15.4375 25.617188 15.378906 25.621094 15.332031 25.632812 L 15.332031 29.066406 M 18.0625 27.332031 C 18.0625 27.808594 17.996094 28.210938 17.859375 28.546875 C 17.730469 28.878906 17.546875 29.148438 17.316406 29.355469 C 17.082031 29.566406 16.800781 29.71875 16.476562 29.820312 C 16.15625 29.910156 15.800781 29.957031 15.414062 29.957031 C 15.210938 29.957031 15.011719 29.949219 14.8125 29.925781 C 14.625 29.910156 14.417969 29.878906 14.195312 29.835938 L 14.195312 24.847656 C 14.453125 24.800781 14.699219 24.765625 14.925781 24.75 C 15.152344 24.734375 15.363281 24.722656 15.5625 24.722656 C 15.9375 24.722656 16.277344 24.773438 16.585938 24.875 C 16.898438 24.972656 17.164062 25.128906 17.378906 25.34375 C 17.59375 25.554688 17.761719 25.824219 17.878906 26.152344 C 18 26.476562 18.0625 26.871094 18.0625 27.332031 "/>
<path d="M 20.378906 24.722656 C 21.105469 24.722656 21.667969 24.859375 22.066406 25.128906 C 22.464844 25.394531 22.667969 25.828125 22.667969 26.433594 C 22.667969 27.042969 22.464844 27.488281 22.058594 27.761719 C 21.65625 28.03125 21.089844 28.167969 20.351562 28.167969 L 19.945312 28.167969 L 19.945312 29.894531 L 18.808594 29.894531 L 18.808594 24.847656 C 18.921875 24.828125 19.042969 24.808594 19.179688 24.789062 C 19.320312 24.773438 19.460938 24.761719 19.601562 24.757812 C 19.746094 24.746094 19.882812 24.738281 20.019531 24.734375 C 20.152344 24.726562 20.273438 24.722656 20.378906 24.722656 M 20.507812 25.609375 C 20.441406 25.609375 20.34375 25.609375 20.222656 25.617188 C 20.105469 25.617188 20.011719 25.621094 19.945312 25.632812 L 19.945312 27.285156 L 20.40625 27.285156 C 20.769531 27.285156 21.042969 27.21875 21.226562 27.09375 C 21.410156 26.960938 21.503906 26.738281 21.503906 26.425781 C 21.503906 26.128906 21.410156 25.917969 21.226562 25.796875 C 21.050781 25.671875 20.808594 25.609375 20.507812 25.609375 "/>
</g>
</svg>
